svg/system/flame_line.svg

<?xml version="1.0" encoding="UTF-8"?>
<svg width="24px" height="24px" viewBox="0 0 24 24" version="1.1" xmlns="http://www.w3.org/2000/svg" xmlns:xlink="http://www.w3.org/1999/xlink">
    <title>flame_line</title>
    <g id="Icon" stroke="none" stroke-width="1" fill="none" fill-rule="evenodd">
        <g id="System" transform="translate(0.000000, -480.000000)">
            <g id="flame_line" transform="translate(0.000000, 480.000000)">
                <path d="M24,0 L24,24 L0,24 L0,0 L24,0 Z M12.5935,23.2578 L12.5819,23.2595 L12.5109,23.295 L12.4919,23.2987 L12.4767,23.295 L12.4057,23.2595 C12.3958,23.2564 12.387,23.259 12.3821,23.2649 L12.378,23.2758 L12.3609,23.7031 L12.3659,23.7235 L12.3769,23.7357 L12.4805,23.8097 L12.4953,23.8136 L12.5071,23.8097 L12.6107,23.7357 L12.6233,23.7197 L12.6267,23.7031 L12.6096,23.2758 C12.6076,23.2657 12.601,23.2593 12.5935,23.2578 Z M12.8584,23.1453 L12.8445,23.1473 L12.6598,23.2397 L12.6499,23.2499 L12.6472,23.2611 L12.6651,23.6906 L12.6699,23.7034 L12.6784,23.7105 L12.8793,23.8032 C12.8914,23.8069 12.9022,23.803 12.9078,23.7952 L12.9118,23.7812 L12.8777,23.1665 C12.8753,23.1546 12.8674,23.147 12.8584,23.1453 Z M12.143,23.1473 C12.1332,23.1424 12.1222,23.1453 12.1156,23.1526 L12.1099,23.1665 L12.0758,23.7812 C12.0751,23.7927 12.0828,23.8019 12.0926,23.8046 L12.1083,23.8032 L12.3092,23.7105 L12.3186,23.7024 L12.3225,23.6906 L12.3404,23.2611 L12.3372,23.2485 L12.3278,23.2397 L12.143,23.1473 Z" id="MingCute" fill-rule="nonzero"></path>
                <path d="M7.74742,5.5915 C8.8486,4.33301 10.0827,3.19155 11.4188,2.18627 C11.7665,1.93791 12.2335,1.93791 12.5812,2.18627 C13.9113,3.20345 15.1487,4.32991 16.2526,5.5915 C18.5845,8.25659 20,11.0875 20,14 C20,18.4183 16.4183,22 12,22 C7.58172,22 4,18.4183 4,14 C4,11.0875 5.41546,8.25659 7.74742,5.5915 Z M12.443,4.63426 C12.297,4.50916 12.1498,4.38545 12,4.265 L11.557,4.63426 C10.771,5.30801 9.98442,6.07211 9.25258,6.9085 C7.20954,9.24341 6,11.6625 6,14 C6,15.4286 6.49927,16.7406 7.33284,17.7709 C7.31777,17.6179 7.31006,17.4626 7.31006,17.3056 C7.31006,15.6327 8.10572,14.0413 9.40468,12.5568 C10.0052,11.8705 10.6859,11.2246 11.4232,10.6863 C11.7709,10.4379 12.238,10.4379 12.5857,10.6863 C13.3263,11.2152 14.0062,11.8733 14.6043,12.5568 C15.9033,14.0413 16.699,15.6327 16.699,17.3056 C16.699,17.4583 16.6917,17.6093 16.6774,17.7582 C17.5048,16.7298 18,15.4227 18,14 C18,11.6625 16.7905,9.24341 14.7474,6.9085 C14.0156,6.07211 13.229,5.30801 12.443,4.63426 Z M12.0041,12.786 C11.619,13.1284 11.2495,13.4856 10.9098,13.8738 C9.8998,15.0281 9.31006,16.2076 9.31006,17.3056 C9.31006,18.7936 10.5164,20 12.0045,20 C13.4926,20 14.699,18.7936 14.699,17.3056 C14.699,16.2077 14.1092,15.0282 13.0991,13.8738 C12.9086,13.6561 11.9664,12.7526 12.0041,12.786 Z" id="形状" fill="#09244B"></path>
            </g>
        </g>
    </g>
</svg>

<svg xmlns="http://www.w3.org/2000/svg" width="24" height="24"><g fill="none" fill-rule="evenodd"><path d="M24 0v24H0V0h24ZM12.594 23.258l-.012.002-.071.035-.02.004-.014-.004-.071-.036c-.01-.003-.019 0-.024.006l-.004.01-.017.428.005.02.01.013.104.074.015.004.012-.004.104-.074.012-.016.004-.017-.017-.427c-.002-.01-.009-.017-.016-.018Zm.264-.113-.014.002-.184.093-.01.01-.003.011.018.43.005.012.008.008.201.092c.012.004.023 0 .029-.008l.004-.014-.034-.614c-.003-.012-.01-.02-.02-.022Zm-.715.002a.023.023 0 0 0-.027.006l-.006.014-.034.614c0 .012.007.02.017.024l.015-.002.201-.093.01-.008.003-.011.018-.43-.003-.012-.01-.01-.184-.092Z"/><path fill="#09244B" d="M7.747 5.592a24.263 24.263 0 0 1 3.672-3.406 1 1 0 0 1 1.162 0 25.16 25.16 0 0 1 3.672 3.406C18.584 8.256 20 11.088 20 14a8 8 0 1 1-16 0c0-2.912 1.415-5.743 3.747-8.408Zm4.696-.958A18.464 18.464 0 0 0 12 4.265l-.443.37a22.74 22.74 0 0 0-2.304 2.274C7.21 9.243 6 11.663 6 14c0 1.429.5 2.74 1.333 3.77a4.747 4.747 0 0 1-.023-.464c0-1.673.796-3.265 2.095-4.75.6-.685 1.28-1.331 2.018-1.87a1 1 0 0 1 1.163 0c.74.53 1.42 1.187 2.018 1.87 1.3 1.485 2.095 3.077 2.095 4.75 0 .152-.007.303-.022.452A5.975 5.975 0 0 0 18 14c0-2.338-1.21-4.757-3.253-7.091a22.736 22.736 0 0 0-2.304-2.275Zm-.439 8.152c-.385.342-.755.7-1.094 1.088-1.01 1.154-1.6 2.334-1.6 3.432a2.694 2.694 0 0 0 5.389 0c0-1.098-.59-2.278-1.6-3.432-.19-.218-1.133-1.121-1.095-1.088Z"/></g></svg>
